X:24
T:Greensleeves
S:(1st/6)
Q:1/4=120
L:1/4
M:6/4
K:Am
A|c2de3/2f/2e|d2BG3/2A/2B|c2AA3/2^G/2A|B2^GE2A|\
c2de3/2f/2e|d2BG3/2A/2B|c3/2B/2A^G3/2^F/2G|A3E3|\
(g3g2)^f/2e/2|d2BG3/2A/2B|c2AA3/2^G/2A|B2^GE3|\
(g3g2)^f/2e/2|d2BG3/2A/2B|c2A^G3/2^F/2G|(A3A2)|]

